src/assets/icons/fa/firefox.svg

<?xml version="1.0" encoding="utf-8"?>
<svg width="1792" height="1792" viewBox="0 0 1792 1792" xmlns="http://www.w3.org/2000/svg"><path d="M903 1792q-283 0-504.5-150.5t-329.5-398.5q-58-131-67-301t26-332.5 111-312 179-242.5l-11 281q11-14 68-15.5t70 15.5q42-81 160.5-138t234.5-59q-54 45-119.5 148.5t-58.5 163.5q25 8 62.5 13.5t63 7.5 68 4 50.5 3q15 5 9.5 45.5t-30.5 75.5q-5 7-16.5 18.5t-56.5 35.5-101 34l15 189-139-67q-18 43-7.5 81.5t36 66.5 65.5 41.5 81 6.5q51-9 98-34.5t83.5-45 73.5-17.5q61 4 89.5 33t19.5 65q-1 2-2.5 5.5t-8.5 12.5-18 15.5-31.5 10.5-46.5 1q-60 95-144.5 135.5t-209.5 29.5q74 61 162.5 82.5t168.5 6 154.5-52 128-87.5 80.5-104q43-91 39-192.5t-37.5-188.5-78.5-125q87 38 137 79.5t77 112.5q15-170-57.5-343t-209.5-284q265 77 412 279.5t151 517.5q2 127-40.5 255t-123.5 238-189 196-247.5 135.5-288.5 49.5z"/></svg>

<svg width="1792" height="1792" xmlns="http://www.w3.org/2000/svg"><path d="M903 1792q-283 0-504.5-150.5T69 1243Q11 1112 2 942t26-332.5 111-312T318 55l-11 281q11-14 68-15.5t70 15.5q42-81 160.5-138T840 139q-54 45-119.5 148.5T662 451q25 8 62.5 13.5t63 7.5 68 4 50.5 3q15 5 9.5 45.5T885 600q-5 7-16.5 18.5T812 654t-101 34l15 189-139-67q-18 43-7.5 81.5t36 66.5 65.5 41.5 81 6.5q51-9 98-34.5t83.5-45T1017 909q61 4 89.5 33t19.5 65q-1 2-2.5 5.5t-8.5 12.5-18 15.5-31.5 10.5-46.5 1q-60 95-144.5 135.5T665 1217q74 61 162.5 82.5t168.5 6 154.5-52 128-87.5 80.5-104q43-91 39-192.5T1360.5 681 1282 556q87 38 137 79.5t77 112.5q15-170-57.5-343T1229 121q265 77 412 279.5T1792 918q2 127-40.5 255T1628 1411t-189 196-247.5 135.5T903 1792z"/></svg>
